X: 28480
T: Muñeira De Rengos
R: jig
M: 6/8
K: Gmajor
GBd|:gag fed|B2 G GBd|gag fed|c3 ABc|
ded cBc|B2 A ABc|ded cBA|1 G3 GBd:|2 G3 B2A||
|:G2 G GFG|A3 ABc|ded ded|B2 G B2A|
G2 G GFG|A3 ABc|ded cBA|1 G3 B2A:|2 G3 GBd||

